; generated by Slic3r 1.31.2-prusa3d-win64 on 2016-12-04 at 02:13:24

; external perimeters extrusion width = 0.50mm
; perimeters extrusion width = 0.72mm
; infill extrusion width = 0.72mm
; solid infill extrusion width = 0.72mm
; top infill extrusion width = 0.72mm

M107
M104 S200 ; set temperature
G28 ; home all axes
G1 Z5 F5000 ; lift nozzle

M109 S200 ; set temperature and wait for it to be reached
G21 ; set units to millimeters
G90 ; use absolute coordinates
M82 ; use absolute distances for extrusion
G92 E0
G1 Z0.500 F7800.000
G1 E-2.00000 F2400.00000
G92 E0
G1 X78.723 Y79.488 F7800.000
G1 E2.00000 F2400.00000
G1 F1800
G1 X79.488 Y78.723 E2.06828
G1 X80.085 Y78.214 E2.11784
G1 X80.960 Y77.578 E2.18612
G1 X81.629 Y77.168 E2.23567
G1 X82.592 Y76.677 E2.30397
G1 X83.317 Y76.377 E2.35351
G1 X84.346 Y76.042 E2.42181
G1 X85.109 Y75.859 E2.47135
G1 X86.177 Y75.690 E2.53965
G1 X86.960 Y75.629 E2.58921
G1 X87.500 Y75.607 E2.62337
G1 X112.500 Y75.607 E4.20201
G1 X113.041 Y75.629 E4.23618
G1 X113.823 Y75.690 E4.28574
G1 X114.891 Y75.859 E4.35402
G1 X115.654 Y76.042 E4.40357
G1 X116.683 Y76.377 E4.47186
G1 X117.408 Y76.677 E4.52141
G1 X118.371 Y77.168 E4.58970
G1 X119.041 Y77.578 E4.63926
G1 X119.915 Y78.214 E4.70754
G1 X120.512 Y78.723 E4.75709
G1 X121.277 Y79.488 E4.82538
G1 X121.787 Y80.085 E4.87495
G1 X122.422 Y80.960 E4.94323
G1 X122.812 Y81.595 E4.99029
G1 X123.323 Y82.592 E5.06106
G1 X123.623 Y83.317 E5.11061
G1 X123.958 Y84.346 E5.17890
G1 X124.141 Y85.109 E5.22846
G1 X124.310 Y86.177 E5.29674
G1 X124.371 Y86.959 E5.34628
G1 X124.393 Y87.500 E5.38046
G1 X124.393 Y112.500 E6.95910
G1 X124.371 Y113.041 E6.99327
G1 X124.310 Y113.824 E7.04285
G1 X124.141 Y114.891 E7.11111
G1 X123.958 Y115.654 E7.16066
G1 X123.623 Y116.683 E7.22896
G1 X123.323 Y117.408 E7.27850
G1 X122.832 Y118.371 E7.34680
G1 X122.422 Y119.040 E7.39634
G1 X121.786 Y119.915 E7.46464
G1 X121.277 Y120.512 E7.51418
G1 X120.512 Y121.277 E7.58248
G1 X119.915 Y121.786 E7.63203
G1 X119.040 Y122.422 E7.70032
G1 X118.405 Y122.812 E7.74739
G1 X117.408 Y123.323 E7.81815
G1 X116.683 Y123.623 E7.86770
G1 X115.654 Y123.958 E7.93600
G1 X114.891 Y124.141 E7.98556
G1 X113.823 Y124.310 E8.05384
G1 X113.041 Y124.371 E8.10338
G1 X112.500 Y124.393 E8.13755
G1 X87.500 Y124.393 E9.71619
G1 X86.959 Y124.371 E9.75037
G1 X86.177 Y124.310 E9.79993
G1 X85.109 Y124.141 E9.86821
G1 X84.346 Y123.958 E9.91775
G1 X83.317 Y123.623 E9.98605
G1 X82.592 Y123.323 E10.03560
G1 X81.629 Y122.832 E10.10389
G1 X80.960 Y122.422 E10.15344
G1 X80.085 Y121.786 E10.22173
G1 X79.488 Y121.277 E10.27128
G1 X78.723 Y120.512 E10.33957
G1 X78.239 Y119.945 E10.38664
G1 X77.578 Y119.040 E10.45741
G1 X77.168 Y118.371 E10.50695
G1 X76.677 Y117.408 E10.57525
G1 X76.377 Y116.683 E10.62480
G1 X76.042 Y115.654 E10.69309
G1 X75.859 Y114.891 E10.74264
G1 X75.690 Y113.823 E10.81093
G1 X75.629 Y113.041 E10.86048
G1 X75.607 Y112.500 E10.89465
G1 X75.607 Y87.500 E12.47329
G1 X75.629 Y86.959 E12.50746
G1 X75.690 Y86.177 E12.55702
G1 X75.859 Y85.109 E12.62530
G1 X76.043 Y84.346 E12.67486
G1 X76.377 Y83.317 E12.74314
G1 X76.677 Y82.592 E12.79269
G1 X77.168 Y81.629 E12.86098
G1 X77.578 Y80.960 E12.91053
G1 X78.214 Y80.085 E12.97883
G1 X78.675 Y79.545 E13.02365
G1 E11.02365 F2400.00000
G92 E0
G1 X113.471 Y108.875 F7800.000
G1 E2.00000 F2400.00000
G1 F1800
G1 X116.125 Y111.529 E2.23697
G1 X115.154 Y115.154 E2.47394
G1 X111.529 Y116.125 E2.71091
G1 X108.875 Y113.471 E2.94788
G1 X109.846 Y109.846 E3.18486
G1 X113.399 Y108.895 E3.41709
G1 X113.881 Y108.588 F7800.000
G1 X108.826 Y107.976 F7800.000
G1 F1800
G1 X107.680 Y109.084 E3.51772
G1 X106.461 Y109.983 E3.61336
G1 X105.012 Y110.789 E3.71809
G1 X103.524 Y111.362 E3.81872
G1 X101.979 Y111.730 E3.91906
G1 X100.397 Y111.889 E4.01941
G1 X98.809 Y111.836 E4.11975
G1 X97.242 Y111.572 E4.22010
G1 X95.725 Y111.101 E4.32044
G1 X94.283 Y110.432 E4.42079
G1 X92.944 Y109.577 E4.52113
G1 X91.730 Y108.551 E4.62148
G1 X90.664 Y107.372 E4.72182
G1 X89.765 Y106.062 E4.82217
G1 X89.048 Y104.644 E4.92251
G1 X88.527 Y103.143 E5.02286
G1 X88.210 Y101.586 E5.12320
G1 X88.104 Y100.000 E5.22355
G1 X88.210 Y98.414 E5.32389
G1 X88.527 Y96.857 E5.42424
G1 X89.048 Y95.356 E5.52458
G1 X89.765 Y93.938 E5.62493
G1 X90.664 Y92.628 E5.72527
G1 X91.730 Y91.449 E5.82562
G1 X92.944 Y90.423 E5.92596
G1 X94.283 Y89.568 E6.02631
G1 X95.725 Y88.899 E6.12665
G1 X97.242 Y88.428 E6.22700
G1 X98.809 Y88.164 E6.32734
G1 X100.397 Y88.111 E6.42769
G1 X101.979 Y88.270 E6.52803
G1 X103.524 Y88.638 E6.62838
G1 X105.007 Y89.209 E6.72872
G1 X106.401 Y89.973 E6.82907
G1 X107.680 Y90.916 E6.92941
G1 X108.826 Y92.024 E7.03004
G1 X109.859 Y93.349 E7.13618
G1 X110.618 Y94.636 E7.23050
G1 X111.238 Y96.098 E7.33076
G1 X111.657 Y97.631 E7.43111
G1 X111.866 Y99.182 E7.52998
G1 X111.891 Y99.917 E7.57642
G1 X111.867 Y100.813 E7.63300
G1 X111.657 Y102.369 E7.73217
G1 X111.238 Y103.902 E7.83251
G1 X110.618 Y105.364 E7.93277
G1 X109.859 Y106.651 E8.02709
G1 X108.872 Y107.917 E8.12850
G1 X108.160 Y107.378 F7800.000
G1 F1800
G1 X107.103 Y108.401 E8.22140
G1 X105.977 Y109.230 E8.30967
G1 X104.632 Y109.978 E8.40685
G1 X103.259 Y110.507 E8.49975
G1 X101.830 Y110.848 E8.59255
G1 X100.368 Y110.995 E8.68535
G1 X98.899 Y110.946 E8.77815
G1 X97.450 Y110.701 E8.87095
G1 X96.046 Y110.266 E8.96374
G1 X94.713 Y109.647 E9.05654
G1 X93.474 Y108.857 E9.14934
G1 X92.352 Y107.908 E9.24214
G1 X91.366 Y106.818 E9.33493
G1 X90.535 Y105.606 E9.42773
G1 X89.872 Y104.295 E9.52053
G1 X89.390 Y102.906 E9.61333
G1 X89.097 Y101.466 E9.70613
G1 X88.999 Y100.000 E9.79892
G1 X89.097 Y98.534 E9.89172
G1 X89.390 Y97.094 E9.98452
G1 X89.872 Y95.705 E10.07732
G1 X90.535 Y94.394 E10.17012
G1 X91.366 Y93.182 E10.26291
G1 X92.352 Y92.092 E10.35571
G1 X93.474 Y91.143 E10.44851
G1 X94.713 Y90.353 E10.54131
G1 X96.046 Y89.734 E10.63411
G1 X97.450 Y89.299 E10.72690
G1 X98.899 Y89.054 E10.81970
G1 X100.368 Y89.005 E10.91250
G1 X101.830 Y89.152 E11.00530
G1 X103.259 Y89.493 E11.09809
G1 X104.631 Y90.021 E11.19089
G1 X105.920 Y90.727 E11.28369
G1 X107.103 Y91.599 E11.37649
G1 X108.160 Y92.622 E11.46939
G1 X109.119 Y93.853 E11.56793
G1 X109.819 Y95.039 E11.65489
G1 X110.392 Y96.391 E11.74765
G1 X110.781 Y97.809 E11.84045
G1 X110.975 Y99.257 E11.93272
G1 X110.998 Y99.920 E11.97464
G1 X110.976 Y100.741 E12.02650
G1 X110.781 Y102.191 E12.11888
G1 X110.392 Y103.609 E12.21168
G1 X109.819 Y104.961 E12.30444
G1 X109.119 Y106.147 E12.39140
G1 X108.206 Y107.319 E12.48520
G1 X108.314 Y107.854 F7800.000
G1 X108.531 Y107.716 F7800.000
G1 X108.531 Y107.716 F7800.000
G1 X109.358 Y108.369 F7800.000
G1 X109.830 Y108.058 F7800.000
G1 X109.830 Y108.058 F7800.000
G1 X110.698 Y107.487 F7800.000
G1 X110.844 Y107.385 F7800.000
G1 X110.998 Y107.272 F7800.000
G1 X111.096 Y107.196 F7800.000
G1 X111.134 Y107.166 F7800.000
G1 X112.218 Y106.344 F7800.000
G1 X112.484 Y106.128 F7800.000
G1 X112.930 Y105.740 F7800.000
G1 X113.487 Y105.308 F7800.000
G1 X113.567 Y104.918 F7800.000
G1 X113.632 Y104.531 F7800.000
G1 X113.839 Y102.994 F7800.000
G1 X113.874 Y102.641 F7800.000
G1 X113.976 Y101.121 F7800.000
G1 X113.986 Y100.869 F7800.000
G1 X113.998 Y100.178 F7800.000
G1 X113.999 Y100.095 F7800.000
G1 X113.999 Y99.905 F7800.000
G1 X113.998 Y99.822 F7800.000
G1 X113.986 Y99.131 F7800.000
G1 X113.976 Y98.879 F7800.000
G1 X113.874 Y97.359 F7800.000
G1 X113.839 Y97.006 F7800.000
G1 X113.632 Y95.469 F7800.000
G1 X113.567 Y95.082 F7800.000
G1 X113.487 Y94.692 F7800.000
G1 X112.930 Y94.260 F7800.000
G1 X112.500 Y93.886 F7800.000
G1 X112.311 Y93.729 F7800.000
G1 X112.198 Y93.640 F7800.000
G1 X112.123 Y93.582 F7800.000
G1 X111.021 Y92.746 F7800.000
G1 X110.981 Y92.716 F7800.000
G1 X110.844 Y92.615 F7800.000
G1 X110.698 Y92.513 F7800.000
G1 X109.358 Y91.631 F7800.000
G1 X109.235 Y91.556 F7800.000
G1 X109.180 Y91.525 F7800.000
G1 X108.466 Y90.822 F7800.000
G1 X108.217 Y90.399 F7800.000
G1 X108.130 Y90.261 F7800.000
G1 X107.212 Y88.917 F7800.000
G1 X107.062 Y88.712 F7800.000
G1 X106.030 Y87.398 F7800.000
G1 X105.788 Y87.110 F7800.000
G1 X105.750 Y87.067 F7800.000
G1 X105.306 Y86.515 F7800.000
G1 X107.125 Y85.187 F7800.000
G1 X106.884 Y85.995 F7800.000
G1 F1800
G1 X107.812 Y89.458 E12.71161
G1 X107.498 Y89.673 E12.73560
G1 X106.882 Y89.219 E12.78388
G1 X105.384 Y88.398 E12.89177
G1 X103.790 Y87.784 E12.99967
G1 X102.127 Y87.388 E13.10756
G1 X100.427 Y87.217 E13.21545
G1 X98.720 Y87.274 E13.32334
G1 X97.035 Y87.558 E13.43123
G1 X95.403 Y88.064 E13.53913
G1 X93.853 Y88.783 E13.64702
G1 X92.063 Y89.926 E13.78113
G1 X93.116 Y85.995 E14.03811
G1 X91.907 Y84.785 E14.14614
G1 X108.093 Y84.785 E15.16828
G1 X106.937 Y85.942 E15.27157
G1 X85.995 Y93.116 F7800.000
G1 F1800
G1 X89.979 Y92.049 E15.53198
G1 X88.995 Y93.482 E15.64173
G1 X88.224 Y95.007 E15.74962
G1 X87.664 Y96.621 E15.85751
G1 X87.324 Y98.295 E15.96541
G1 X87.209 Y100.000 E16.07330
G1 X87.324 Y101.705 E16.18119
G1 X87.664 Y103.379 E16.28908
G1 X88.224 Y104.993 E16.39697
G1 X88.995 Y106.518 E16.50487
G1 X89.979 Y107.951 E16.61461
G1 X85.995 Y106.884 E16.87502
G1 X84.785 Y108.093 E16.98305
G1 X84.785 Y91.907 E18.00519
G1 X85.942 Y93.063 E18.10848
G1 X85.187 Y92.875 F7800.000
G1 X85.187 Y92.875 F7800.000
G1 X86.510 Y94.689 F7800.000
G1 X86.280 Y96.049 F7800.000
G1 X86.231 Y96.417 F7800.000
G1 X86.076 Y97.954 F7800.000
G1 X86.053 Y98.296 F7800.000
G1 X86.002 Y99.833 F7800.000
G1 X86.002 Y100.167 F7800.000
G1 X86.053 Y101.704 F7800.000
G1 X86.076 Y102.046 F7800.000
G1 X86.231 Y103.583 F7800.000
G1 X86.280 Y103.951 F7800.000
G1 X86.510 Y105.311 F7800.000
G1 X86.677 Y105.439 F7800.000
G1 X87.010 Y105.703 F7800.000
G1 X87.067 Y105.749 F7800.000
G1 X88.317 Y106.764 F7800.000
G1 X88.541 Y106.934 F7800.000
G1 X89.878 Y107.880 F7800.000
G1 X90.031 Y107.981 F7800.000
G1 X90.823 Y108.465 F7800.000
G1 X91.314 Y108.892 F7800.000
G1 X91.394 Y108.990 F7800.000
G1 X91.529 Y109.179 F7800.000
G1 X92.265 Y110.339 F7800.000
G1 X92.381 Y110.508 F7800.000
G1 X93.355 Y111.837 F7800.000
G1 X93.547 Y112.082 F7800.000
G1 X94.260 Y112.930 F7800.000
G1 X94.624 Y113.409 F7800.000
G1 X94.684 Y113.496 F7800.000
G1 X94.992 Y113.551 F7800.000
G1 X96.529 Y113.783 F7800.000
G1 X96.889 Y113.826 F7800.000
G1 X98.425 Y113.955 F7800.000
G1 X98.764 Y113.972 F7800.000
G1 X100.301 Y113.997 F7800.000
G1 X100.635 Y113.992 F7800.000
G1 X102.172 Y113.915 F7800.000
G1 X102.519 Y113.885 F7800.000
G1 X102.656 Y113.869 F7800.000
G1 X102.656 Y113.869 F7800.000
G1 X104.056 Y113.705 F7800.000
G1 X104.433 Y113.648 F7800.000
G1 X105.306 Y113.485 F7800.000
G1 X107.125 Y114.813 F7800.000
G1 X106.884 Y114.005 F7800.000
G1 F1800
G1 X108.093 Y115.215 E18.21651
G1 X91.907 Y115.215 E19.23865
G1 X93.116 Y114.005 E19.34668
G1 X92.063 Y110.074 E19.60366
G1 X93.853 Y111.217 E19.73777
G1 X95.403 Y111.936 E19.84566
G1 X97.035 Y112.442 E19.95356
G1 X98.720 Y112.726 E20.06145
G1 X100.427 Y112.783 E20.16934
G1 X102.127 Y112.612 E20.27723
G1 X103.790 Y112.216 E20.38512
G1 X105.391 Y111.600 E20.49348
G1 X106.945 Y110.735 E20.60576
G1 X107.498 Y110.327 E20.64916
G1 X107.812 Y110.542 E20.67314
G1 X106.903 Y113.932 E20.89481
G1 X107.125 Y114.813 F7800.000
G1 X107.125 Y114.813 F7800.000
G1 X105.306 Y113.485 F7800.000
G1 X105.750 Y112.933 F7800.000
G1 X105.788 Y112.890 F7800.000
G1 X106.030 Y112.602 F7800.000
G1 X107.062 Y111.288 F7800.000
G1 X107.212 Y111.083 F7800.000
G1 X107.294 Y110.963 F7800.000
G1 X107.294 Y110.963 F7800.000
G1 X108.130 Y109.739 F7800.000
G1 X108.217 Y109.601 F7800.000
G1 X108.466 Y109.178 F7800.000
G1 X109.180 Y108.475 F7800.000
G1 X109.235 Y108.444 F7800.000
G1 X109.358 Y108.369 F7800.000
G1 X109.830 Y108.058 F7800.000
G1 X109.830 Y108.058 F7800.000
G1 X110.698 Y107.487 F7800.000
G1 X110.844 Y107.385 F7800.000
G1 X110.998 Y107.272 F7800.000
G1 X111.096 Y107.196 F7800.000
G1 X111.134 Y107.166 F7800.000
G1 X112.218 Y106.344 F7800.000
G1 X112.484 Y106.128 F7800.000
G1 X112.930 Y105.740 F7800.000
G1 X113.487 Y105.308 F7800.000
G1 X114.813 Y107.125 F7800.000
G1 X114.005 Y106.884 F7800.000
G1 F1800
G1 X110.551 Y107.809 E21.12060
G1 X110.338 Y107.488 E21.14493
G1 X110.599 Y107.154 E21.17169
G1 X111.417 Y105.767 E21.27338
G1 X112.083 Y104.196 E21.38113
G1 X112.534 Y102.548 E21.48902
G1 X112.758 Y100.885 E21.59498
G1 X112.784 Y99.914 E21.65627
G1 X112.757 Y99.108 E21.70724
G1 X112.534 Y97.452 E21.81271
G1 X112.083 Y95.804 E21.92060
G1 X111.417 Y94.233 E22.02835
G1 X110.599 Y92.846 E22.13004
G1 X110.338 Y92.512 E22.15680
G1 X110.551 Y92.191 E22.18113
G1 X114.005 Y93.116 E22.40692
G1 X115.215 Y91.907 E22.51495
G1 X115.215 Y108.093 E23.53708
G1 X114.058 Y106.937 E23.64038
G1 X114.813 Y107.125 F7800.000
G1 X114.813 Y107.125 F7800.000
G1 X113.487 Y105.308 F7800.000
G1 X112.930 Y105.740 F7800.000
G1 X112.484 Y106.128 F7800.000
G1 X112.218 Y106.344 F7800.000
G1 X111.134 Y107.166 F7800.000
G1 X111.096 Y107.196 F7800.000
G1 X110.998 Y107.272 F7800.000
G1 X110.844 Y107.385 F7800.000
G1 X110.698 Y107.487 F7800.000
G1 X109.830 Y108.058 F7800.000
G1 X109.830 Y108.058 F7800.000
G1 X109.358 Y108.369 F7800.000
G1 X109.235 Y108.444 F7800.000
G1 X109.180 Y108.475 F7800.000
G1 X108.466 Y109.178 F7800.000
G1 X108.217 Y109.601 F7800.000
G1 X108.130 Y109.739 F7800.000
G1 X107.294 Y110.963 F7800.000
G1 X107.294 Y110.963 F7800.000
G1 X107.212 Y111.083 F7800.000
G1 X107.062 Y111.288 F7800.000
G1 X106.030 Y112.602 F7800.000
G1 X105.788 Y112.890 F7800.000
G1 X105.750 Y112.933 F7800.000
G1 X108.317 Y113.621 F7800.000
G1 X107.879 Y113.738 F7800.000
G1 F1800
G1 X110.249 Y116.107 E23.85195
G1 X89.751 Y116.107 E25.14626
G1 X92.121 Y113.738 E25.35784
G1 X90.882 Y109.117 E25.65990
G1 X86.262 Y107.879 E25.96196
G1 X83.893 Y110.249 E26.17354
G1 X83.893 Y89.751 E27.46785
G1 X86.262 Y92.121 E27.67942
G1 X90.882 Y90.882 E27.98148
G1 X92.121 Y86.262 E28.28355
G1 X89.751 Y83.893 E28.49512
G1 X110.249 Y83.893 E29.78943
G1 X107.879 Y86.262 E30.00101
G1 X109.117 Y90.882 E30.30307
G1 X113.738 Y92.121 E30.60513
G1 X116.107 Y89.751 E30.81670
G1 X116.107 Y110.249 E32.11102
G1 X113.738 Y107.879 E32.32259
G1 X109.117 Y109.118 E32.62465
G1 X107.899 Y113.666 E32.92198
G1 X86.529 Y108.875 F7800.000
G1 F1800
G1 X90.154 Y109.846 E33.15895
G1 X91.125 Y113.471 E33.39592
G1 X88.471 Y116.125 E33.63289
G1 X84.846 Y115.154 E33.86986
G1 X83.875 Y111.529 E34.10683
G1 X86.476 Y108.928 E34.33907
G1 X86.740 Y108.422 F7800.000
G1 X83.875 Y88.471 F7800.000
G1 F1800
G1 X84.846 Y84.846 E34.57604
G1 X88.471 Y83.875 E34.81301
G1 X91.125 Y86.529 E35.04998
G1 X90.154 Y90.154 E35.28695
G1 X86.529 Y91.125 E35.52392
G1 X83.928 Y88.524 E35.75616
G1 X83.392 Y88.342 F7800.000
G1 X83.932 Y88.371 F7800.000
G1 X83.932 Y88.371 F7800.000
G1 X83.500 Y88.803 F7800.000
G1 X85.187 Y92.875 F7800.000
G1 X86.510 Y94.689 F7800.000
G1 X86.677 Y94.561 F7800.000
G1 X87.010 Y94.297 F7800.000
G1 X87.067 Y94.251 F7800.000
G1 X88.317 Y93.236 F7800.000
G1 X88.541 Y93.066 F7800.000
G1 X89.878 Y92.120 F7800.000
G1 X90.031 Y92.019 F7800.000
G1 X90.823 Y91.535 F7800.000
G1 X91.314 Y91.108 F7800.000
G1 X91.394 Y91.010 F7800.000
G1 X91.529 Y90.821 F7800.000
G1 X92.265 Y89.661 F7800.000
G1 X92.381 Y89.492 F7800.000
G1 X93.355 Y88.163 F7800.000
G1 X93.547 Y87.918 F7800.000
G1 X94.260 Y87.070 F7800.000
G1 X94.624 Y86.591 F7800.000
G1 X94.684 Y86.504 F7800.000
G1 X94.992 Y86.449 F7800.000
G1 X96.529 Y86.217 F7800.000
G1 X96.889 Y86.174 F7800.000
G1 X98.425 Y86.045 F7800.000
G1 X98.764 Y86.028 F7800.000
G1 X99.900 Y86.009 F7800.000
G1 X99.900 Y86.009 F7800.000
G1 X100.301 Y86.003 F7800.000
G1 X100.635 Y86.008 F7800.000
G1 X102.172 Y86.085 F7800.000
G1 X102.519 Y86.115 F7800.000
G1 X104.056 Y86.295 F7800.000
G1 X104.433 Y86.352 F7800.000
G1 X105.306 Y86.515 F7800.000
G1 X107.125 Y85.187 F7800.000
G1 X111.197 Y83.500 F7800.000
G1 X111.629 Y83.932 F7800.000
G1 X111.529 Y83.875 F7800.000
G1 F1800
G1 X115.154 Y84.846 E35.99313
G1 X116.125 Y88.471 E36.23010
G1 X113.471 Y91.125 E36.46707
G1 X109.846 Y90.154 E36.70404
G1 X108.875 Y86.529 E36.94102
G1 X111.476 Y83.928 E37.17325
G1 X111.740 Y83.422 F7800.000
G1 X113.892 Y83.222 F7800.000
G1 F1800
G1 X114.542 Y83.492 E37.21771
G1 X115.144 Y83.861 E37.26228
G1 X115.681 Y84.319 E37.30685
